X: 1
T: The Cuil Aodha
R: jig
M: 6/8
L: 1/8
K: Gmaj
gfd cAd|GAG B2c|dcB cAG|
FED cBA|~G3 GFG|~A3 fga|
gfd cAd|1 GAG G2g:|2 GAG G2d||
d2g gfg|ade fga|gfd cAd|
cAG FGA|G2g gfg|ade fga|
gfd cAd|1 GAG G2d:|2 GAG G2g||


Tune 825	Setting 13976

